posts/2021-03-26/compute-stl-frontal-area/logo.svg

<?xml version="1.0" encoding="utf-8" standalone="no"?>
<!DOCTYPE svg PUBLIC "-//W3C//DTD SVG 1.1//EN"
  "http://www.w3.org/Graphics/SVG/1.1/DTD/svg11.dtd">
<!-- Created with matplotlib (https://matplotlib.org/) -->
<svg height="77.616pt" version="1.1" viewBox="0 0 208.09125 77.616" width="208.09125pt" xmlns="http://www.w3.org/2000/svg" xmlns:xlink="http://www.w3.org/1999/xlink">
 <defs>
  <style type="text/css">
*{stroke-linecap:butt;stroke-linejoin:round;}
  </style>
 </defs>
 <g id="figure_1">
  <g id="patch_1">
   <path d="M 0 77.616 
L 208.09125 77.616 
L 208.09125 0 
L 0 0 
z
" style="fill:#ffffff;"/>
  </g>
  <g id="axes_1">
   <g id="text_1">
    <!-- p -->
    <defs>
     <path d="M 40.703125 25.90625 
Q 40.703125 32.796875 37.59375 36.9375 
Q 34.5 41.09375 28.40625 41.09375 
Q 26.40625 41.09375 24.703125 40.9375 
Q 23 40.796875 21.90625 40.59375 
L 21.90625 13.703125 
Q 23.296875 12.796875 25.546875 12.1875 
Q 27.796875 11.59375 30.09375 11.59375 
Q 40.703125 11.59375 40.703125 25.90625 
z
M 55.90625 26.296875 
Q 55.90625 20.203125 54.40625 15.203125 
Q 52.90625 10.203125 50 6.59375 
Q 47.09375 3 42.796875 1 
Q 38.5 -1 32.90625 -1 
Q 29.796875 -1 27.09375 -0.390625 
Q 24.40625 0.203125 21.90625 1.296875 
L 21.90625 -18.5 
L 7 -18.5 
L 7 50.796875 
Q 9 51.40625 11.59375 51.953125 
Q 14.203125 52.5 17.046875 52.890625 
Q 19.90625 53.296875 22.84375 53.546875 
Q 25.796875 53.796875 28.5 53.796875 
Q 35 53.796875 40.09375 51.84375 
Q 45.203125 49.90625 48.703125 46.34375 
Q 52.203125 42.796875 54.046875 37.6875 
Q 55.90625 32.59375 55.90625 26.296875 
z
" id="Ubuntu-Bold-112"/>
    </defs>
    <g style="fill:#009999;" transform="translate(0 56.448)scale(0.72 -0.72)">
     <use xlink:href="#Ubuntu-Bold-112"/>
    </g>
   </g>
   <g id="text_2">
    <!-- Area -->
    <defs>
     <path d="M 54.40625 0 
Q 53.296875 3.59375 51.9375 7.390625 
Q 50.59375 11.203125 49.296875 15 
L 22.296875 15 
Q 21 11.203125 19.640625 7.390625 
Q 18.296875 3.59375 17.203125 0 
L 1 0 
Q 4.90625 11.203125 8.40625 20.703125 
Q 11.90625 30.203125 15.25 38.59375 
Q 18.59375 47 21.84375 54.546875 
Q 25.09375 62.09375 28.59375 69.296875 
L 43.5 69.296875 
Q 46.90625 62.09375 50.203125 54.546875 
Q 53.5 47 56.84375 38.59375 
Q 60.203125 30.203125 63.703125 20.703125 
Q 67.203125 11.203125 71.09375 0 
z
M 35.703125 53.59375 
Q 35.203125 52.09375 34.203125 49.5 
Q 33.203125 46.90625 31.890625 43.5 
Q 30.59375 40.09375 29.046875 36 
Q 27.5 31.90625 25.90625 27.40625 
L 45.59375 27.40625 
Q 44 31.90625 42.5 36 
Q 41 40.09375 39.640625 43.5 
Q 38.296875 46.90625 37.296875 49.5 
Q 36.296875 52.09375 35.703125 53.59375 
z
" id="Ubuntu-Bold-65"/>
     <path d="M 38.703125 39.40625 
Q 36.703125 39.90625 34 40.453125 
Q 31.296875 41 28.203125 41 
Q 26.796875 41 24.84375 40.75 
Q 22.90625 40.5 21.90625 40.203125 
L 21.90625 0 
L 7 0 
L 7 49.796875 
Q 11 51.203125 16.453125 52.453125 
Q 21.90625 53.703125 28.59375 53.703125 
Q 29.796875 53.703125 31.5 53.546875 
Q 33.203125 53.40625 34.890625 53.15625 
Q 36.59375 52.90625 38.296875 52.546875 
Q 40 52.203125 41.203125 51.703125 
z
" id="Ubuntu-Bold-114"/>
     <path d="M 4.5 25.90625 
Q 4.5 32.90625 6.640625 38.15625 
Q 8.796875 43.40625 12.296875 46.90625 
Q 15.796875 50.40625 20.34375 52.203125 
Q 24.90625 54 29.703125 54 
Q 40.90625 54 47.40625 47.140625 
Q 53.90625 40.296875 53.90625 27 
Q 53.90625 25.703125 53.796875 24.140625 
Q 53.703125 22.59375 53.59375 21.40625 
L 19.796875 21.40625 
Q 20.296875 16.796875 24.09375 14.09375 
Q 27.90625 11.40625 34.296875 11.40625 
Q 38.40625 11.40625 42.34375 12.15625 
Q 46.296875 12.90625 48.796875 14 
L 50.796875 1.90625 
Q 49.59375 1.296875 47.59375 0.6875 
Q 45.59375 0.09375 43.140625 -0.34375 
Q 40.703125 -0.796875 37.890625 -1.09375 
Q 35.09375 -1.40625 32.296875 -1.40625 
Q 25.203125 -1.40625 19.953125 0.6875 
Q 14.703125 2.796875 11.25 6.4375 
Q 7.796875 10.09375 6.140625 15.09375 
Q 4.5 20.09375 4.5 25.90625 
z
M 39.5 31.59375 
Q 39.40625 33.5 38.84375 35.296875 
Q 38.296875 37.09375 37.140625 38.5 
Q 36 39.90625 34.25 40.796875 
Q 32.5 41.703125 29.90625 41.703125 
Q 27.40625 41.703125 25.59375 40.84375 
Q 23.796875 40 22.59375 38.59375 
Q 21.40625 37.203125 20.75 35.34375 
Q 20.09375 33.5 19.796875 31.59375 
z
" id="Ubuntu-Bold-101"/>
     <path d="M 27.09375 10.40625 
Q 29.296875 10.40625 31.296875 10.5 
Q 33.296875 10.59375 34.5 10.796875 
L 34.5 22.09375 
Q 33.59375 22.296875 31.796875 22.5 
Q 30 22.703125 28.5 22.703125 
Q 26.40625 22.703125 24.546875 22.453125 
Q 22.703125 22.203125 21.296875 21.5 
Q 19.90625 20.796875 19.09375 19.59375 
Q 18.296875 18.40625 18.296875 16.59375 
Q 18.296875 13.09375 20.640625 11.75 
Q 23 10.40625 27.09375 10.40625 
z
M 25.90625 54 
Q 32.5 54 36.890625 52.5 
Q 41.296875 51 43.9375 48.203125 
Q 46.59375 45.40625 47.6875 41.40625 
Q 48.796875 37.40625 48.796875 32.5 
L 48.796875 1.5 
Q 45.59375 0.796875 39.890625 -0.140625 
Q 34.203125 -1.09375 26.09375 -1.09375 
Q 21 -1.09375 16.84375 -0.1875 
Q 12.703125 0.703125 9.703125 2.75 
Q 6.703125 4.796875 5.09375 8.09375 
Q 3.5 11.40625 3.5 16.203125 
Q 3.5 20.796875 5.34375 24 
Q 7.203125 27.203125 10.296875 29.09375 
Q 13.40625 31 17.40625 31.84375 
Q 21.40625 32.703125 25.703125 32.703125 
Q 28.59375 32.703125 30.84375 32.453125 
Q 33.09375 32.203125 34.5 31.796875 
L 34.5 33.203125 
Q 34.5 37 32.203125 39.296875 
Q 29.90625 41.59375 24.203125 41.59375 
Q 20.40625 41.59375 16.703125 41.046875 
Q 13 40.5 10.296875 39.5 
L 8.40625 51.5 
Q 9.703125 51.90625 11.640625 52.34375 
Q 13.59375 52.796875 15.890625 53.140625 
Q 18.203125 53.5 20.75 53.75 
Q 23.296875 54 25.90625 54 
z
" id="Ubuntu-Bold-97"/>
    </defs>
    <g style="fill:#b3b3b3;" transform="translate(43.9425 56.448)scale(0.72 -0.72)">
     <use xlink:href="#Ubuntu-Bold-65"/>
     <use x="72.099991" xlink:href="#Ubuntu-Bold-114"/>
     <use x="114.284363" xlink:href="#Ubuntu-Bold-101"/>
     <use x="172.684357" xlink:href="#Ubuntu-Bold-97"/>
    </g>
   </g>
  </g>
 </g>
</svg>

<?xml version="1.0" encoding="UTF-8"?>
<!DOCTYPE svg  PUBLIC '-//W3C//DTD SVG 1.1//EN'  'http://www.w3.org/Graphics/SVG/1.1/DTD/svg11.dtd'>
<svg width="208.09pt" height="77.616pt" version="1.1" viewBox="0 0 208.09125 77.616" xmlns="http://www.w3.org/2000/svg" xmlns:xlink="http://www.w3.org/1999/xlink">
<defs>
<style type="text/css">*{stroke-linecap:butt;stroke-linejoin:round;}</style>
</defs>
<path d="m0 77.616h208.09v-77.616h-208.09z" fill="#fff"/>
<defs>
<path id="d" d="m40.703 25.906q0 6.8906-3.1094 11.031-3.0938 4.1562-9.1875 4.1562-2 0-3.7031-0.15625-1.7031-0.14062-2.7969-0.34375v-26.891q1.3906-0.90625 3.6406-1.5156 2.25-0.59375 4.5469-0.59375 10.609 0 10.609 14.312zm15.203 0.39062q0-6.0938-1.5-11.094t-4.4062-8.6094q-2.9062-3.5938-7.2031-5.5938t-9.8906-2q-3.1094 0-5.8125 0.60938-2.6875 0.59375-5.1875 1.6875v-19.797h-14.906v69.297q2 0.60938 4.5938 1.1562 2.6094 0.54688 5.4531 0.9375 2.8594 0.40625 5.7969 0.65625 2.9531 0.25 5.6562 0.25 6.5 0 11.594-1.9531 5.1094-1.9375 8.6094-5.5 3.5-3.5469 5.3438-8.6562 1.8594-5.0938 1.8594-11.391z"/>
</defs>
<g transform="translate(0 56.448) scale(.72 -.72)" fill="#099">
<use xlink:href="#d"/>
</g>
<defs>
<path id="b" d="m54.406 0q-1.1094 3.5938-2.4688 7.3906-1.3438 3.8125-2.6406 7.6094h-27q-1.2969-3.7969-2.6562-7.6094-1.3438-3.7969-2.4375-7.3906h-16.203q3.9062 11.203 7.4062 20.703t6.8438 17.891q3.3438 8.4062 6.5938 15.953t6.75 14.75h14.906q3.4062-7.2031 6.7031-14.75t6.6406-15.953q3.3594-8.3906 6.8594-17.891t7.3906-20.703zm-18.703 53.594q-0.5-1.5-1.5-4.0938t-2.3125-6q-1.2969-3.4062-2.8438-7.5t-3.1406-8.5938h19.688q-1.5938 4.5-3.0938 8.5938t-2.8594 7.5q-1.3438 3.4062-2.3438 6t-1.5938 4.0938z"/>
<path id="c" d="m38.703 39.406q-2 0.5-4.7031 1.0469t-5.7969 0.54688q-1.4062 0-3.3594-0.25-1.9375-0.25-2.9375-0.54688v-40.203h-14.906v49.797q4 1.4062 9.4531 2.6562t12.141 1.25q1.2031 0 2.9062-0.15625 1.7031-0.14062 3.3906-0.39062 1.7031-0.25 3.4062-0.60938 1.7031-0.34375 2.9062-0.84375z"/>
<path id="e" d="m4.5 25.906q0 7 2.1406 12.25 2.1562 5.25 5.6562 8.75t8.0469 5.2969q4.5625 1.7969 9.3594 1.7969 11.203 0 17.703-6.8594 6.5-6.8438 6.5-20.141 0-1.2969-0.10938-2.8594-0.09375-1.5469-0.20312-2.7344h-33.797q0.5-4.6094 4.2969-7.3125 3.8125-2.6875 10.203-2.6875 4.1094 0 8.0469 0.75 3.9531 0.75 6.4531 1.8438l2-12.094q-1.2031-0.60938-3.2031-1.2188-2-0.59375-4.4531-1.0312-2.4375-0.45312-5.25-0.75-2.7969-0.3125-5.5938-0.3125-7.0938 0-12.344 2.0938-5.25 2.1094-8.7031 5.75-3.4531 3.6562-5.1094 8.6562-1.6406 5-1.6406 10.812zm35 5.6875q-0.09375 1.9062-0.65625 3.7031-0.54688 1.7969-1.7031 3.2031-1.1406 1.4062-2.8906 2.2969-1.75 0.90625-4.3438 0.90625-2.5 0-4.3125-0.85938-1.7969-0.84375-3-2.25-1.1875-1.3906-1.8438-3.25-0.65625-1.8438-0.95312-3.75z"/>
<path id="a" d="m27.094 10.406q2.2031 0 4.2031 0.09375t3.2031 0.29688v11.297q-0.90625 0.20312-2.7031 0.40625t-3.2969 0.20312q-2.0938 0-3.9531-0.25-1.8438-0.25-3.25-0.95312-1.3906-0.70312-2.2031-1.9062-0.79688-1.1875-0.79688-3 0-3.5 2.3438-4.8438 2.3594-1.3438 6.4531-1.3438zm-1.1875 43.594q6.5938 0 10.984-1.5 4.4062-1.5 7.0469-4.2969 2.6562-2.7969 3.75-6.7969 1.1094-4 1.1094-8.9062v-31q-3.2031-0.70312-8.9062-1.6406-5.6875-0.95312-13.797-0.95312-5.0938 0-9.25 0.90625-4.1406 0.89062-7.1406 2.9375t-4.6094 5.3438q-1.5938 3.3125-1.5938 8.1094 0 4.5938 1.8438 7.7969 1.8594 3.2031 4.9531 5.0938 3.1094 1.9062 7.1094 2.75 4 0.85938 8.2969 0.85938 2.8906 0 5.1406-0.25t3.6562-0.65625v1.4062q0 3.7969-2.2969 6.0938t-8 2.2969q-3.7969 0-7.5-0.54688t-6.4062-1.5469l-1.8906 12q1.2969 0.40625 3.2344 0.84375 1.9531 0.45312 4.25 0.79688 2.3125 0.35938 4.8594 0.60938t5.1562 0.25z"/>
</defs>
<g transform="translate(43.942 56.448) scale(.72 -.72)" fill="#b3b3b3">
<use xlink:href="#b"/>
<use x="72.099991" xlink:href="#c"/>
<use x="114.284363" xlink:href="#e"/>
<use x="172.684357" xlink:href="#a"/>
</g>
</svg>
